X: 129
T:Mr Edward Wagstaff's Fancy
B:William Marshall's Scottish Airs, Melodies, Strathspeys, Reels &c (1822)
C:William Marshall
L:1/8
M:C
O:Scotland
R:Reel?
Z:Clark Bernst + Richard Robinson
%%Page:47 - 2
F:http://richardrobinson.tunebook.org.uk/tune/3972
%%TBL:{"version":1,"type":"tune","id":"3972"}
K:C
%%staves {1 2}
V:1
(!trill!g^f)ge c2 ag | fedc (cB)(AG) | GcBd cedf | eaAd (cB)(AG) | 
(!trill!g^f)ge c2 ag | fedc (cB)(AG) | CEDF EGFA | GcBd c2 ~c2 |]
ec (!trill!cB/c/) (Gc)Bc | ecgc acgc | (fga).g fedc | BGdG eGdG | 
ec (!trill!cB/c/) (Gc)Bc | ecgc acgc | (EG)FE (FA)df | edcB c2 c2 |]
V:2 middle=d clef=bass
L:1/4
cc'cc' | fdgG | cgc'g | c'fg2 | cc'ce | fdgG | cdef | gGcc |] \
c2c'2 | c2[cf]c | ffff | gg[gc']g | c2c'2 | c2[cf]c | ccfd | gGcc |]

